X:1
T:Drunken Piper
C:Trad.
L:1/8
M:2/2
I:linebreak $
K:D
V:1 treble 
V:1
"A" AAAc e2 ef | edBd e2 g2 |"G" GGGB d2 de | dBGB d2 e2 |"A" AABd e2 ef | edBd e2 a2 |$ %6
"G" g2 fd efed |1 .B2"A" A2 A3 A :|2 .B2"A" A2 A4 |:"A" a3 g e2 ag | edef g2 g2 |"G" G2 GB d2 de | %12
 dBGB"^(Emi)" d2 e2 |1$"A" a3 g e2 ag | edef g2 a2 |"G" g2 fd efed | B2"A" A2 A4 :|2 %17
"A" AABd e2 ef | edBd e2 a2 |"G" g2 fd efed |$ B2"A" A2 A4 || %21
